X: 188
T: Gadameiling
%%abc-version 2.0
%%abcx-abcm2ps-target-version 5.9.1 (29 Sep 2008)
%%abc-creator hum2abc beta
%%abcx-conversion-date 2013/10/02 07:44:28
%%abc-edited-by Helmut Schaffrath
%%humdrum-veritas 2348649880
%%humdrum-veritas-data 1479471118
%%continueall 1
%%barnumbers 0
L: 1/4
M: 4/4
K: F
DAAG/ A/ [I:setbarnb 1]| 
cdFD | 
GA/ G/FD | 
G>Acf | 
d4 | 
cdcA/ c/ | 
cdFD | 
FD/ F/CD | 
GG/ A/cF | 
D4 |]  



